X:15882
T:St Sebastion. JC.221
M:3/8
L:1/8
Q:30
S:John Clare,Poet,Helpstone (1793-1864)
R:Waltz
O:England179
A:Northamptonshire
N:
N:No TS given: 2/4 adde
Z:P Headford
K:C
gg (e/c/)|aa d/c/|BBg|(fe) .f|.g.g e/c/|aa d/c/|BgB|"crot"c3:|!
|:.f.f (d/B/)|e-e (c/e/)|d-d (B/G/)|ceg|.f.f (d/B/)|.e.e (c/e/)|dd B/G/|
